X: 41115
T: Trip To Sligo, The
R: jig
M: 6/8
K: Eminor
|:E2e BGE|D2d AFD|E2e BGE|GFE e2f|
gfe fdB|{A}B2G FED|EFG FGA|1 BGF E2D:|2 BGF E2B||
|:eBe gfe|dAd fed|eBe gfe|f/g/af gfe|
f/g/af gfe|fdB AFD|EFG FGA|1 BGF E2B:|2 BGF E2D||

